X:26
T:Der Todt von Basel
R:
O:Alsace - Elsass
A:
S:
B:Chansons populaires de l'Alsace
Z:transcription (partition) : <anamnese@laposte.net>
N:Weckerlin II - p. 156
N:
M:2/4
L:1/8
Q:1/4=130
K:F
C | F A A G | G F F F  | A c c A | G2 z C | 
    F A A G | G F F F  | A c c A | G2 z G |
    A c c c | c2 A2 | f2 d2 | c2 A c | 
B G F E |(FA) c A | B G A E | F2 z2 ||
W:Als ich ein jung Gesellen war, Nahm ich ein steinalt Weib ; (2x)
